X:102
T:Kingfisher 2
M:4/4
L:1/8
K:G
G2 d2 cB AG | ef g2 d2 cB | cd ec Bc dB | Ad de dc BA |
G2 d2 cB AG | ef g2 d2 cB | cd ec Bc dB | A3 G G4 :||
g2 fg a2 ga | b3 a gf ed | ef gf ed cB | Ad de dc BA |
G2 d2 cB AG | ef g2 d2 cB | cd ec Bc dB | A3 G G4 :||
